public/ember-cli-visualeditor/styles/themes/apex/images/textures/transparency.svg

<?xml version="1.0" encoding="UTF-8"?>
<svg xmlns="http://www.w3.org/2000/svg" width="16" height="16" viewBox="0, 0, 16, 16">
    <g id="transparency">
        <path d="M0 0h8v8H0zm8 8h8v8H8z" fill="#ccc"/>
        <path d="M8 0h8v8H8zM0 8h8v8H0z" fill="#fff"/>
    </g>
</svg>

<?xml version="1.0" encoding="UTF-8"?>
<!DOCTYPE svg PUBLIC "-//W3C//DTD SVG 1.1//EN" "http://www.w3.org/Graphics/SVG/1.1/DTD/svg11.dtd">
<svg version="1.1" xmlns="http://www.w3.org/2000/svg" xmlns:xlink="http://www.w3.org/1999/xlink" x="0" y="0" width="16" height="16" viewBox="0, 0, 16, 16">
	<g id="transparency">
		<path d="M0,0 L8,0 L8,8 L0,8 z" fill="#CCCCCC"/>
		<path d="M8,8 L16,8 L16,16 L8,16 z" fill="#CCCCCC"/>
		<path d="M8,0 L16,0 L16,8 L8,8 z" fill="#FFFFFF"/>
		<path d="M0,8 L8,8 L8,16 L0,16 z" fill="#FFFFFF"/>
	</g>
</svg>
